packages/katcn/src/icons/svg/palette-solid.svg

<svg width="24" height="25" viewBox="0 0 24 25" fill="none" xmlns="http://www.w3.org/2000/svg">
<path d="M21.7 9.91201C20.7 6.01201 17.5 3.01201 13.6 2.41201C10.7 1.91201 7.8 2.81201 5.6 4.71201C3.3 6.61201 2 9.51201 2 12.512C2 16.912 4.8 20.812 8.9 22.212C9.2 22.312 9.5 22.412 9.9 22.412C10.5 22.412 11.2 22.212 11.7 21.812C12.5 21.212 13 20.212 13 19.212C13 17.812 14.1 16.912 15.6 16.912H17.7C20.1 16.912 22 15.012 22 12.612C22 11.612 21.9 10.812 21.7 9.91201Z" fill="black"/>
<path d="M8.47974 14.5902C9.24993 14.157 9.52315 13.1815 9.08998 12.4113C8.65681 11.6411 7.68129 11.3679 6.9111 11.8011C6.14091 12.2342 5.86769 13.2097 6.30086 13.9799C6.73403 14.7501 7.70955 15.0233 8.47974 14.5902Z" fill="white"/>
<path d="M10.6757 9.59073C11.4459 9.15756 11.7191 8.18204 11.2859 7.41185C10.8527 6.64165 9.87722 6.36844 9.10702 6.80161C8.33683 7.23478 8.06362 8.21029 8.49678 8.98049C8.92995 9.75068 9.90547 10.0239 10.6757 9.59073Z" fill="white"/>
<path d="M16.0702 10.2964C16.8404 9.8632 17.1136 8.88768 16.6804 8.11749C16.2473 7.3473 15.2717 7.07408 14.5016 7.50725C13.7314 7.94042 13.4581 8.91594 13.8913 9.68613C14.3245 10.4563 15.3 10.7295 16.0702 10.2964Z" fill="white"/>
</svg>

<svg xmlns="http://www.w3.org/2000/svg" fill="none" viewBox="0 0 24 25"><path fill="#000" d="M21.7 9.912c-1-3.9-4.2-6.9-8.1-7.5-2.9-.5-5.8.4-8 2.3-2.3 1.9-3.6 4.8-3.6 7.8 0 4.4 2.8 8.3 6.9 9.7.3.1.6.2 1 .2.6 0 1.3-.2 1.8-.6.8-.6 1.3-1.6 1.3-2.6 0-1.4 1.1-2.3 2.6-2.3h2.1c2.4 0 4.3-1.9 4.3-4.3 0-1-.1-1.8-.3-2.7"/><path fill="#fff" d="M8.48 14.59a1.6 1.6 0 1 0-1.569-2.789 1.6 1.6 0 0 0 1.569 2.79m2.196-5.001a1.6 1.6 0 1 0-1.569-2.788 1.6 1.6 0 0 0 1.569 2.789m5.394.705a1.6 1.6 0 1 0-1.568-2.789 1.6 1.6 0 0 0 1.568 2.79"/></svg>
